X: 1397
T: the Four Courts - No.2   #2
B: O'Neill's 1850 #1397
O: Cronin
%S: s:3 b:18(5+6+7)
Z: Bob Safranek, rjs@gsp.org
Z: Compacted via another repeat with multiple endings [JC]
M: C|
L: 1/8
K: A
ed !segno!\
"^A"\
|: ((3cdc) Ac ((3BcB) Ad | ((3cdc) Ac BcdB | ((3cdc) Ac ((3BcB) Ac | dfed BcdB "^B":: e3g fddf |
| ecce dBBc | Acef g2fe | dfed BcdB "^C":: a2 ((3efg) a2 ((3efg) | a>aec Ac ((3efg) | agab agec |
| dfed BcdB "^C":: eAcA eAcA | eAcA BcdB | eAcA [1 eAcA | dfed BcdB :|2 e2ef | gedc Bcd!segno!B |]
